Carto/POI/SVG/ski-run_solid_24px.svg

<svg width="24" height="24" viewBox="0 0 24 24" fill="none" xmlns="http://www.w3.org/2000/svg">
<path d="M20.37 6.09003L21.37 4.35003C21.4973 4.12134 21.5298 3.85189 21.4606 3.59949C21.3914 3.3471 21.2261 3.13188 21 3.00003L20.13 2.50003C19.9004 2.36965 19.6285 2.33539 19.3737 2.4047C19.119 2.47402 18.9019 2.64129 18.77 2.87003L17.27 5.47003L18.14 5.96003L19 6.46003C19.1141 6.52614 19.2402 6.56903 19.371 6.58621C19.5018 6.6034 19.6347 6.59454 19.762 6.56015C19.8894 6.52576 20.0086 6.46651 20.113 6.38583C20.2173 6.30514 20.3047 6.20461 20.37 6.09003ZM19.37 19.92C18.52 20.4 18.14 20.37 17.58 20.04L11.5 16.57L15 14.52L14 11.11L9.70001 8.63003L11.93 12.78L9.33001 15.33L3.69001 12.1L2.51001 13.15L16.82 21.33C17.2657 21.5885 17.783 21.696 18.2948 21.6365C18.8066 21.5771 19.2854 21.3538 19.66 21L19.37 19.92ZM20.49 11.92L17.89 10.43L17.8 7.51003L14.43 5.58003C14.278 5.49226 14.1055 5.44605 13.93 5.44605C13.7545 5.44605 13.582 5.49226 13.43 5.58003L11.81 7.00003L6.60001 4.00003L5.86001 5.30003L19.75 13.24L20.49 11.92Z" fill="#0F1621"/>
</svg>

<svg xmlns="http://www.w3.org/2000/svg" width="24" height="24" viewBox="0 0 24 24"><path d="M0,0H24V24H0Z" style="fill:none;opacity:0.05"/><path d="M20.37,6.09l1-1.74A1,1,0,0,0,21,3l-.87-.5a1,1,0,0,0-1.36.37L17.27,5.47l.87.49.86.5A1,1,0,0,0,20.37,6.09Zm-1,13.83c-.85.48-1.23.45-1.79.12L11.5,16.57,15,14.52,14,11.11,9.7,8.63l2.23,4.15-2.6,2.55L3.69,12.1,2.51,13.15l14.31,8.18A2.39,2.39,0,0,0,19.66,21Zm1.12-8-2.6-1.49L17.8,7.51,14.43,5.58a1,1,0,0,0-1,0L11.81,7,6.6,4l-.74,1.3,13.89,7.94Z"/></svg>
